;FLAVOR:Marlin
;TIME:24
;Filament used: 0.0109037m
;Layer height: 0.1
;MINX:97.452
;MINY:99.452
;MINZ:0.3
;MAXX:109.548
;MAXY:111.546
;MAXZ:1
;Generated with Cura_SteamEngine 4.6.1
M82 ;absolute extrusion mode
G21 ;metric values
G90 ;absolute positioning
M82 ;set extruder to absolute mode
M107 ;start with the fan off
M140 S60.0 ; start preheating the bed WITHOUT wait to what is set in Cura
#M104 S200.0 ﻿T0 ; start preheating hotend WITHOUT wait to what is set in Cura (lieber warten bis das Hotend heiss ist vor Home)
M109 S200.0 ﻿T0 ; start heating hotend to what is set in Cura and WAIT
G28 X0 Y0 ;move X/Y to min endstops
G28 Z0 ;move Z to min endstops
G1 Z15.0 F9000 ;move the platform down 15mm
M190 S60.0 ; start heating the bed to what is set in Cura and WAIT
M109 S200.0 ﻿T0 ; start heating hotend to what is set in Cura and WAIT
G92 E0 ;zero the extruded length
G1 F200 E3 ;extrude 3mm of feed stock
G92 E0 ;zero the extruded length again
G1 F9000
M117 Printing...
G92 E0
G92 E0
G1 F1500 E-6.5
;LAYER_COUNT:8
;LAYER:0
M107
G0 F3600 X104.537 Y101.908 Z0.3
;TYPE:SKIRT
G1 F1500 E0
G1 F2400 X105.023 Y102.034 E0.01879
G1 X105.482 Y102.235 E0.03754
G1 X105.904 Y102.507 E0.05632
G1 X106.277 Y102.842 E0.07508
G1 X106.592 Y103.233 E0.09387
G1 X106.841 Y103.668 E0.11262
G1 X107.018 Y104.137 E0.13138
G1 X107.118 Y104.629 E0.15017
G1 X107.149 Y105.226 E0.17253
G1 X107.14 Y106.036 E0.20284
G1 X107.092 Y106.535 E0.2216
G1 X106.966 Y107.021 E0.24039
G1 X106.765 Y107.48 E0.25914
G1 X106.493 Y107.902 E0.27792
G1 X106.158 Y108.275 E0.29668
G1 X105.767 Y108.59 E0.31547
G1 X105.332 Y108.839 E0.33423
G1 X104.862 Y109.016 E0.35302
G1 X104.371 Y109.116 E0.37177
G1 X103.794 Y109.148 E0.39339
G1 X102.967 Y109.141 E0.42434
G1 X102.467 Y109.094 E0.44313
G1 X101.982 Y108.969 E0.46187
G1 X101.522 Y108.768 E0.48065
G1 X101.1 Y108.497 E0.49942
G1 X100.727 Y108.162 E0.51818
G1 X100.411 Y107.772 E0.53696
G1 X100.161 Y107.337 E0.55573
G1 X99.984 Y106.868 E0.57449
G1 X99.883 Y106.377 E0.59324
G1 X99.851 Y105.763 E0.61625
G1 X99.86 Y104.962 E0.64622
G1 X99.908 Y104.462 E0.66502
G1 X100.034 Y103.977 E0.68377
G1 X100.235 Y103.517 E0.70255
G1 X100.507 Y103.096 E0.72131
G1 X100.843 Y102.723 E0.74009
G1 X101.233 Y102.408 E0.75885
G1 X101.669 Y102.159 E0.77764
G1 X102.138 Y101.982 E0.79639
G1 X102.629 Y101.882 E0.81514
G1 X103.226 Y101.851 E0.83751
G1 X104.038 Y101.86 E0.8679
G1 X104.537 Y101.908 E0.88665
G0 F3600 X104.565 Y101.608
G1 F2400 X105.075 Y101.735 E0.90632
G1 X105.559 Y101.937 E0.92594
G1 X106.007 Y102.21 E0.94557
G1 X106.409 Y102.549 E0.96525
G1 X106.754 Y102.944 E0.98487
G1 X107.035 Y103.387 E1.0045
G1 X107.246 Y103.868 E1.02416
G1 X107.382 Y104.375 E1.0438
G1 X107.44 Y104.909 E1.0639
G1 X107.44 Y106.04 E1.10622
G1 X107.392 Y106.563 E1.12587
G1 X107.265 Y107.073 E1.14553
G1 X107.063 Y107.557 E1.16516
G1 X106.79 Y108.005 E1.18479
G1 X106.451 Y108.407 E1.20446
G1 X106.056 Y108.752 E1.22409
G1 X105.613 Y109.034 E1.24374
G1 X105.132 Y109.245 E1.26339
G1 X104.625 Y109.38 E1.28302
G1 X104.113 Y109.437 E1.3023
G1 X102.963 Y109.441 E1.34533
G1 X102.44 Y109.394 E1.36498
G1 X101.93 Y109.268 E1.38463
G1 X101.446 Y109.066 E1.40426
G1 X100.997 Y108.794 E1.4239
G1 X100.595 Y108.456 E1.44355
G1 X100.249 Y108.061 E1.4632
G1 X99.967 Y107.618 E1.48285
G1 X99.755 Y107.138 E1.50249
G1 X99.619 Y106.631 E1.52213
G1 X99.56 Y106.089 E1.54253
G1 X99.56 Y104.957 E1.58488
G1 X99.608 Y104.434 E1.60454
G1 X99.735 Y103.925 E1.62417
G1 X99.937 Y103.44 E1.64382
G1 X100.211 Y102.992 E1.66347
G1 X100.549 Y102.591 E1.6831
G1 X100.944 Y102.246 E1.70272
G1 X101.388 Y101.964 E1.7224
G1 X101.868 Y101.753 E1.74202
G1 X102.376 Y101.618 E1.76169
G1 X102.909 Y101.56 E1.78175
G1 X103.369 Y101.55 E1.79897
G1 X104.042 Y101.56 E1.82415
G1 X104.565 Y101.608 E1.8438
G0 F3600 X104.592 Y101.308
G1 F2400 X105.124 Y101.435 E1.86427
G1 X105.633 Y101.638 E1.88477
G1 X106.106 Y101.913 E1.90525
G1 X106.534 Y102.254 E1.92572
G1 X106.908 Y102.654 E1.94621
G1 X107.22 Y103.104 E1.9667
G1 X107.463 Y103.594 E1.98717
G1 X107.633 Y104.115 E2.00767
G1 X107.739 Y104.9 E2.03731
G1 X107.74 Y106.045 E2.08016
G1 X107.692 Y106.59 E2.10063
G1 X107.565 Y107.123 E2.12113
G1 X107.361 Y107.631 E2.14161
G1 X107.087 Y108.104 E2.16207
G1 X106.746 Y108.532 E2.18254
G1 X106.346 Y108.906 E2.20303
G1 X105.896 Y109.218 E2.22352
G1 X105.406 Y109.461 E2.24399
G1 X104.885 Y109.631 E2.26449
G1 X104.124 Y109.737 E2.29324
G1 X103.632 Y109.75 E2.31166
G1 X102.959 Y109.741 E2.33684
G1 X102.414 Y109.693 E2.35732
G1 X101.881 Y109.567 E2.37781
G1 X101.372 Y109.365 E2.3983
G1 X100.899 Y109.091 E2.41875
G1 X100.47 Y108.751 E2.43924
G1 X100.095 Y108.352 E2.45972
G1 X99.783 Y107.902 E2.48021
G1 X99.539 Y107.412 E2.50069
G1 X99.369 Y106.892 E2.52117
G1 X99.261 Y106.097 E2.55119
G1 X99.26 Y104.953 E2.59399
G1 X99.309 Y104.407 E2.6145
G1 X99.436 Y103.875 E2.63497
G1 X99.639 Y103.367 E2.65544
G1 X99.914 Y102.893 E2.67594
G1 X100.255 Y102.465 E2.69642
G1 X100.654 Y102.091 E2.71688
G1 X101.104 Y101.779 E2.73737
G1 X101.595 Y101.536 E2.75787
G1 X102.115 Y101.367 E2.77833
G1 X102.9 Y101.261 E2.80797
G1 X103.374 Y101.25 E2.82571
G1 X104.047 Y101.26 E2.85089
G1 X104.592 Y101.308 E2.87137
G0 F3600 X104.618 Y101.009
G1 F2400 X105.172 Y101.136 E2.89263
G1 X105.704 Y101.34 E2.91395
G1 X106.201 Y101.616 E2.93522
G1 X106.655 Y101.959 E2.95652
G1 X107.056 Y102.362 E2.97779
G1 X107.397 Y102.818 E2.99909
G1 X107.67 Y103.317 E3.02038
G1 X107.871 Y103.849 E3.04166
G1 X107.995 Y104.404 E3.06294
G1 X108.048 Y105.2 E3.09279
G1 X108.04 Y106.049 E3.12455
G1 X107.991 Y106.616 E3.14585
G1 X107.864 Y107.171 E3.16715
G1 X107.66 Y107.702 E3.18844
G1 X107.384 Y108.199 E3.20971
G1 X107.041 Y108.653 E3.231
G1 X106.637 Y109.054 E3.2523
G1 X106.182 Y109.395 E3.27357
G1 X105.683 Y109.668 E3.29486
G1 X105.151 Y109.869 E3.31614
G1 X104.596 Y109.993 E3.33742
G1 X103.827 Y110.047 E3.36626
G1 X102.955 Y110.041 E3.39889
G1 X102.388 Y109.993 E3.42018
G1 X101.833 Y109.867 E3.44148
G1 X101.302 Y109.664 E3.46275
G1 X100.804 Y109.388 E3.48405
G1 X100.35 Y109.046 E3.50532
G1 X99.948 Y108.643 E3.52662
G1 X99.607 Y108.188 E3.5479
G1 X99.332 Y107.69 E3.56918
G1 X99.131 Y107.158 E3.59046
G1 X99.005 Y106.603 E3.61176
G1 X98.952 Y105.789 E3.64228
G1 X98.96 Y104.948 E3.67375
G1 X99.009 Y104.381 E3.69504
G1 X99.136 Y103.827 E3.71631
G1 X99.34 Y103.296 E3.7376
G1 X99.616 Y102.799 E3.75887
G1 X99.96 Y102.345 E3.78018
G1 X100.363 Y101.944 E3.80145
G1 X100.819 Y101.603 E3.82276
G1 X101.317 Y101.33 E3.84401
G1 X101.85 Y101.129 E3.86532
G1 X102.405 Y101.004 E3.88661
G1 X103.2 Y100.952 E3.91642
G1 X104.051 Y100.96 E3.94826
G1 X104.618 Y101.009 E3.96956
G0 F3600 X104.643 Y100.709
G1 F2400 X105.219 Y100.837 E3.99164
G1 X105.772 Y101.041 E4.01369
G1 X106.292 Y101.318 E4.03574
G1 X106.77 Y101.664 E4.05782
G1 X107.197 Y102.07 E4.07987
G1 X107.565 Y102.531 E4.10194
G1 X107.868 Y103.037 E4.124
G1 X108.099 Y103.579 E4.14605
G1 X108.255 Y104.148 E4.16813
G1 X108.339 Y104.883 E4.19581
G1 X108.35 Y105.383 E4.21452
G1 X108.34 Y106.054 E4.23963
G1 X108.291 Y106.641 E4.26167
G1 X108.163 Y107.217 E4.28375
G1 X107.959 Y107.77 E4.3058
G1 X107.681 Y108.29 E4.32787
G1 X107.336 Y108.768 E4.34993
G1 X106.93 Y109.195 E4.37197
G1 X106.469 Y109.563 E4.39404
G1 X105.963 Y109.866 E4.41611
G1 X105.421 Y110.097 E4.43816
G1 X104.852 Y110.253 E4.46023
G1 X104.145 Y110.336 E4.48687
G1 X103.624 Y110.35 E4.50637
G1 X102.951 Y110.341 E4.53156
G1 X102.363 Y110.293 E4.55363
G1 X101.787 Y110.166 E4.5757
G1 X101.234 Y109.962 E4.59776
G1 X100.713 Y109.686 E4.61982
G1 X100.235 Y109.342 E4.64185
G1 X99.807 Y108.936 E4.66393
G1 X99.438 Y108.476 E4.68599
G1 X99.135 Y107.97 E4.70806
G1 X98.903 Y107.428 E4.73012
G1 X98.747 Y106.86 E4.75216
G1 X98.661 Y106.114 E4.78026
G1 X98.65 Y105.609 E4.79916
G1 X98.66 Y104.944 E4.82405
G1 X98.709 Y104.356 E4.84612
G1 X98.837 Y103.78 E4.8682
G1 X99.042 Y103.227 E4.89027
G1 X99.319 Y102.707 E4.91232
G1 X99.664 Y102.229 E4.93437
G1 X100.071 Y101.802 E4.95645
G1 X100.531 Y101.434 E4.97849
G1 X101.037 Y101.132 E5.00054
G1 X101.58 Y100.901 E5.02262
G1 X102.148 Y100.745 E5.04466
G1 X102.883 Y100.661 E5.07234
G1 X103.383 Y100.65 E5.09105
G1 X104.056 Y100.66 E5.11624
G1 X104.643 Y100.709 E5.13828
G0 F3600 X104.668 Y100.41
G1 F2400 X105.264 Y100.538 E5.16109
G1 X105.838 Y100.742 E5.18388
G1 X106.38 Y101.021 E5.20669
G1 X106.882 Y101.368 E5.22952
G1 X107.333 Y101.777 E5.25231
G1 X107.727 Y102.242 E5.27511
G1 X108.057 Y102.754 E5.2979
G1 X108.317 Y103.306 E5.32073
G1 X108.503 Y103.886 E5.34352
G1 X108.611 Y104.486 E5.36634
G1 X108.648 Y105.182 E5.39242
G1 X108.639 Y106.058 E5.4252
G1 X108.59 Y106.666 E5.44802
G1 X108.462 Y107.262 E5.47083
G1 X108.257 Y107.836 E5.49363
G1 X107.979 Y108.378 E5.51643
G1 X107.632 Y108.88 E5.53926
G1 X107.223 Y109.331 E5.56204
G1 X106.758 Y109.725 E5.58485
G1 X106.245 Y110.055 E5.60767
G1 X105.694 Y110.316 E5.63048
G1 X105.113 Y110.501 E5.6533
G1 X104.513 Y110.609 E5.67611
G1 X103.848 Y110.647 E5.70103
G1 X102.947 Y110.641 E5.73475
G1 X102.339 Y110.592 E5.75757
G1 X101.743 Y110.465 E5.78037
G1 X101.169 Y110.261 E5.80317
G1 X100.626 Y109.984 E5.82598
G1 X100.124 Y109.638 E5.84879
G1 X99.672 Y109.229 E5.8716
G1 X99.277 Y108.765 E5.8944
G1 X98.946 Y108.253 E5.91721
G1 X98.685 Y107.702 E5.94003
G1 X98.498 Y107.121 E5.96286
G1 X98.389 Y106.522 E5.98564
G1 X98.352 Y105.806 E6.01247
G1 X98.361 Y104.939 E6.04491
G1 X98.41 Y104.331 E6.06774
G1 X98.538 Y103.736 E6.09051
G1 X98.743 Y103.161 E6.11335
G1 X99.021 Y102.619 E6.13614
G1 X99.368 Y102.118 E6.15895
G1 X99.778 Y101.666 E6.18178
G1 X100.243 Y101.272 E6.20459
G1 X100.755 Y100.942 E6.22738
G1 X101.307 Y100.682 E6.25021
G1 X101.887 Y100.497 E6.27299
G1 X102.487 Y100.388 E6.29581
G1 X103.182 Y100.352 E6.32185
G1 X104.06 Y100.361 E6.3547
G1 X104.668 Y100.41 E6.37753
G0 F3600 X104.692 Y100.11
G1 F2400 X105.307 Y100.238 E6.40103
G1 X105.902 Y100.444 E6.42459
G1 X106.465 Y100.723 E6.4481
G1 X106.989 Y101.071 E6.47164
G1 X107.464 Y101.483 E6.49517
G1 X107.884 Y101.952 E6.51872
G1 X108.24 Y102.47 E6.54224
G1 X108.528 Y103.03 E6.56581
G1 X108.742 Y103.621 E6.58932
G1 X108.88 Y104.235 E6.61287
G1 X108.939 Y104.865 E6.63655
G1 X108.949 Y105.392 E6.65627
G1 X108.939 Y106.063 E6.68138
G1 X108.89 Y106.69 E6.70491
G1 X108.762 Y107.306 E6.72846
G1 X108.556 Y107.9 E6.75198
G1 X108.277 Y108.464 E6.77552
G1 X107.929 Y108.987 E6.79903
G1 X107.517 Y109.462 E6.82256
G1 X107.048 Y109.882 E6.84611
G1 X106.529 Y110.238 E6.86966
G1 X105.97 Y110.526 E6.89319
G1 X105.379 Y110.74 E6.91671
G1 X104.765 Y110.878 E6.94026
G1 X104.167 Y110.936 E6.96274
G1 X103.616 Y110.95 E6.98336
G1 X102.943 Y110.941 E7.00855
G1 X102.316 Y110.892 E7.03208
G1 X101.7 Y110.765 E7.05562
G1 X101.105 Y110.56 E7.07916
G1 X100.541 Y110.282 E7.10269
G1 X100.017 Y109.934 E7.12623
G1 X99.541 Y109.523 E7.14976
G1 X99.121 Y109.055 E7.17329
G1 X98.764 Y108.537 E7.19683
G1 X98.475 Y107.978 E7.22037
G1 X98.26 Y107.387 E7.24391
G1 X98.121 Y106.774 E7.26743
G1 X98.061 Y106.131 E7.29159
G1 X98.051 Y105.6 E7.31146
G1 X98.061 Y104.935 E7.33635
G1 X98.11 Y104.308 E7.35988
G1 X98.238 Y103.692 E7.38342
G1 X98.444 Y103.097 E7.40698
G1 X98.723 Y102.534 E7.43049
G1 X99.072 Y102.01 E7.45405
G1 X99.484 Y101.535 E7.47758
G1 X99.953 Y101.116 E7.50111
G1 X100.471 Y100.76 E7.52463
G1 X101.03 Y100.472 E7.54816
G1 X101.622 Y100.258 E7.57171
G1 X102.235 Y100.12 E7.59522
G1 X102.865 Y100.061 E7.6189
G1 X103.392 Y100.051 E7.63862
G1 X104.065 Y100.061 E7.66381
G1 X104.692 Y100.11 E7.68734
G0 F3600 X104.715 Y99.81
G1 F2400 X105.35 Y99.939 E7.71158
G1 X105.964 Y100.145 E7.73582
G1 X106.548 Y100.425 E7.76005
G1 X107.093 Y100.775 E7.78429
G1 X107.591 Y101.189 E7.80852
G1 X108.034 Y101.661 E7.83274
G1 X108.416 Y102.185 E7.857
G1 X108.73 Y102.751 E7.88122
G1 X108.972 Y103.352 E7.90547
G1 X109.139 Y103.978 E7.92971
G1 X109.239 Y104.857 E7.96281
G1 X109.249 Y105.396 E7.98298
G1 X109.239 Y106.067 E8.00809
G1 X109.19 Y106.713 E8.03233
G1 X109.061 Y107.348 E8.05658
G1 X108.855 Y107.962 E8.08081
G1 X108.575 Y108.546 E8.10505
G1 X108.225 Y109.091 E8.12928
G1 X107.811 Y109.589 E8.15351
G1 X107.339 Y110.032 E8.17774
G1 X106.815 Y110.414 E8.202
G1 X106.249 Y110.728 E8.22622
G1 X105.648 Y110.97 E8.25046
G1 X105.022 Y111.137 E8.2747
G1 X104.177 Y111.236 E8.30654
G1 X103.612 Y111.25 E8.32769
G1 X102.939 Y111.241 E8.35287
G1 X102.293 Y111.192 E8.37711
G1 X101.658 Y111.064 E8.40135
G1 X101.043 Y110.859 E8.42561
G1 X100.459 Y110.58 E8.44982
G1 X99.913 Y110.231 E8.47407
G1 X99.415 Y109.817 E8.4983
G1 X98.971 Y109.346 E8.52252
G1 X98.588 Y108.823 E8.54678
G1 X98.273 Y108.257 E8.57101
G1 X98.03 Y107.656 E8.59527
G1 X97.863 Y107.031 E8.61948
G1 X97.761 Y106.14 E8.65303
G1 X97.751 Y105.595 E8.67343
G1 X97.761 Y104.93 E8.69832
G1 X97.81 Y104.284 E8.72256
G1 X97.939 Y103.649 E8.7468
G1 X98.145 Y103.035 E8.77104
G1 X98.425 Y102.451 E8.79527
G1 X98.775 Y101.906 E8.81951
G1 X99.189 Y101.408 E8.84374
G1 X99.662 Y100.965 E8.86799
G1 X100.186 Y100.584 E8.89223
G1 X100.752 Y100.269 E8.91647
G1 X101.353 Y100.027 E8.94071
G1 X101.979 Y99.861 E8.96494
G1 X102.857 Y99.761 E8.99801
G1 X103.396 Y99.751 E9.01818
G1 X104.069 Y99.761 E9.04336
G1 X104.715 Y99.81 E9.0676
G0 F3600 X104.738 Y99.51
G1 F2400 X105.391 Y99.639 E9.09251
G1 X106.024 Y99.846 E9.11743
G1 X106.628 Y100.127 E9.14236
G1 X107.194 Y100.478 E9.16728
G1 X107.714 Y100.894 E9.19219
G1 X108.18 Y101.37 E9.21712
G1 X108.586 Y101.898 E9.24204
G1 X108.926 Y102.471 E9.26697
G1 X109.195 Y103.08 E9.29188
G1 X109.388 Y103.717 E9.31679
G1 X109.504 Y104.373 E9.34171
G1 X109.548 Y105.156 E9.37106
G1 X109.539 Y106.072 E9.40533
G1 X109.49 Y106.736 E9.43025
G1 X109.36 Y107.389 E9.45516
G1 X109.154 Y108.023 E9.4801
G1 X108.873 Y108.626 E9.505
G1 X108.522 Y109.192 E9.52992
G1 X108.106 Y109.712 E9.55483
G1 X107.63 Y110.179 E9.57979
G1 X107.102 Y110.584 E9.60469
G1 X106.529 Y110.924 E9.62962
G1 X105.92 Y111.193 E9.65453
G1 X105.282 Y111.386 E9.67947
G1 X104.627 Y111.502 E9.70436
G1 X103.88 Y111.546 E9.73236
G1 X102.935 Y111.541 E9.76772
G1 X102.271 Y111.492 E9.79263
G1 X101.617 Y111.364 E9.81757
G1 X100.983 Y111.158 E9.84251
G1 X100.379 Y110.878 E9.86742
G1 X99.812 Y110.528 E9.89235
G1 X99.292 Y110.112 E9.91727
G1 X98.825 Y109.638 E9.94217
G1 X98.418 Y109.11 E9.96711
G1 X98.078 Y108.538 E9.99201
G1 X97.808 Y107.929 E10.01694
G1 X97.614 Y107.292 E10.04185
G1 X97.497 Y106.636 E10.06679
G1 X97.452 Y105.832 E10.09692
G1 X97.461 Y104.926 E10.13082
G1 X97.511 Y104.261 E10.15577
G1 X97.64 Y103.608 E10.18068
G1 X97.846 Y102.975 E10.20559
G1 X98.127 Y102.371 E10.23051
G1 X98.478 Y101.805 E10.25543
G1 X98.895 Y101.285 E10.28037
G1 X99.37 Y100.819 E10.30527
G1 X99.899 Y100.413 E10.33022
G1 X100.471 Y100.074 E10.3551
G1 X101.081 Y99.805 E10.38005
G1 X101.718 Y99.611 E10.40496
G1 X102.374 Y99.496 E10.42988
G1 X103.156 Y99.452 E10.45919
G1 X104.073 Y99.461 E10.49351
G1 X104.738 Y99.51 E10.51846
G1 F1500 E4.01846
;MESH:Wuerfel.stl
G0 F3600 X103.686 Y104.335
G0 X103.686 Y105.314
G0 X103.45 Y105.55
;TYPE:WALL-INNER
G1 F1500 E10.51846
G1 F2400 X103.45 Y105.45 E10.5222
G1 X103.55 Y105.45 E10.52594
G1 X103.55 Y105.55 E10.52719
G1 X103.45 Y105.55 E10.52843
G0 F3600 X103.15 Y105.85
;TYPE:WALL-OUTER
G1 F2400 X103.15 Y105.15 E10.55463
G1 X103.85 Y105.15 E10.58082
G1 X103.85 Y105.85 E10.60701
G1 X103.15 Y105.85 E10.6332
G0 F3600 X103.15 Y105.7
M104 S200
G0 X103.4 Y105.488
;MESH:NONMESH
G0 F600 X103.4 Y105.488 Z0.4
G0 F3600 X103.45 Y105.55
;TIME_ELAPSED:21.640638
;LAYER:1
M140 S60
M106 S2.5
;TYPE:WALL-INNER
;MESH:Wuerfel.stl
G1 F900 X103.45 Y105.45 E10.63445
G1 X103.55 Y105.45 E10.6357
G1 X103.55 Y105.55 E10.63611
G1 X103.45 Y105.55 E10.63653
G0 F5400 X103.15 Y105.85
;TYPE:WALL-OUTER
G1 F600 X103.15 Y105.15 E10.64526
G1 X103.85 Y105.15 E10.65399
G1 X103.85 Y105.85 E10.66272
G1 X103.15 Y105.85 E10.67145
G0 F5400 X103.15 Y105.7
G0 X103.4 Y105.488
;MESH:NONMESH
G0 F600 X103.4 Y105.488 Z0.5
G0 F5400 X103.45 Y105.55
;TIME_ELAPSED:22.051056
;LAYER:2
;TYPE:WALL-INNER
;MESH:Wuerfel.stl
G1 F1200 X103.45 Y105.45 E10.6727
G1 X103.55 Y105.45 E10.67395
G1 X103.55 Y105.55 E10.67436
G1 X103.45 Y105.55 E10.67478
G0 F7200 X103.15 Y105.85
;TYPE:WALL-OUTER
