;FLAVOR:Marlin
;TIME:951
;Filament used: 0.429492m
;Layer height: 0.1
;MINX:94.45
;MINY:96.45
;MINZ:0.3
;MAXX:112.55
;MAXY:114.55
;MAXZ:10
;Generated with Cura_SteamEngine 4.6.1
M140 S60
M105
M190 S60
M104 S200
M105
M109 S200
M82 ;absolute extrusion mode
G21 ;metric values
G90 ;absolute positioning
M82 ;set extruder to absolute mode
M107 ;start with the fan off
G28 X0 Y0 ;move X/Y to min endstops
G28 Z0 ;move Z to min endstops
G1 Z15.0 F9000 ;move the platform down 15mm
G92 E0 ;zero the extruded length
G1 F200 E3 ;extrude 3mm of feed stock
G92 E0 ;zero the extruded length again
G1 F9000
;Put printing message on LCD screen
M117 Printing...
G92 E0
G92 E0
G1 F1500 E-6.5
;LAYER_COUNT:98
;LAYER:0
M107
G0 F3600 X109.036 Y97.407 Z0.3
;TYPE:SKIRT
G1 F1500 E0
G1 F2400 X109.521 Y97.533 E0.01875
G1 X109.981 Y97.734 E0.03753
G1 X110.402 Y98.006 E0.05629
G1 X110.775 Y98.341 E0.07505
G1 X111.091 Y98.731 E0.09383
G1 X111.34 Y99.166 E0.11258
G1 X111.517 Y99.636 E0.13138
G1 X111.618 Y100.127 E0.15013
G1 X111.649 Y100.741 E0.17314
G1 X111.65 Y109.803 E0.51222
G1 X111.641 Y110.53 E0.53942
G1 X111.595 Y111.029 E0.55817
G1 X111.47 Y111.515 E0.57695
G1 X111.269 Y111.975 E0.59573
G1 X110.999 Y112.397 E0.61448
G1 X110.664 Y112.771 E0.63326
G1 X110.275 Y113.087 E0.65202
G1 X109.84 Y113.338 E0.67081
G1 X109.371 Y113.516 E0.68958
G1 X108.88 Y113.617 E0.70834
G1 X108.258 Y113.649 E0.73164
G1 X99.166 Y113.65 E1.07184
G1 X98.468 Y113.641 E1.09796
G1 X97.969 Y113.594 E1.11672
G1 X97.483 Y113.469 E1.13549
G1 X97.023 Y113.269 E1.15426
G1 X96.601 Y112.998 E1.17303
G1 X96.228 Y112.663 E1.19179
G1 X95.912 Y112.273 E1.21057
G1 X95.662 Y111.839 E1.22931
G1 X95.484 Y111.37 E1.24808
G1 X95.383 Y110.878 E1.26687
G1 X95.351 Y110.243 E1.29066
G1 X95.35 Y101.131 E1.63161
G1 X95.359 Y100.466 E1.6565
G1 X95.406 Y99.967 E1.67525
G1 X95.531 Y99.481 E1.69403
G1 X95.732 Y99.022 E1.71278
G1 X96.004 Y98.6 E1.73156
G1 X96.338 Y98.226 E1.75033
G1 X96.728 Y97.911 E1.76908
G1 X97.163 Y97.661 E1.78786
G1 X97.632 Y97.483 E1.80663
G1 X98.124 Y97.383 E1.82541
G1 X98.742 Y97.351 E1.84857
G1 X107.838 Y97.35 E2.18892
G1 X108.536 Y97.36 E2.21504
G1 X109.036 Y97.407 E2.23383
G0 F3600 X109.063 Y97.108
G1 F2400 X109.573 Y97.234 E2.25349
G1 X110.057 Y97.436 E2.27311
G1 X110.506 Y97.709 E2.29277
G1 X110.907 Y98.047 E2.3124
G1 X111.253 Y98.443 E2.33207
G1 X111.535 Y98.886 E2.35172
G1 X111.746 Y99.366 E2.37134
G1 X111.882 Y99.873 E2.39098
G1 X111.94 Y100.413 E2.41131
G1 X111.95 Y109.807 E2.76281
G1 X111.941 Y110.534 E2.79001
G1 X111.894 Y111.057 E2.80966
G1 X111.769 Y111.566 E2.82927
G1 X111.568 Y112.051 E2.84892
G1 X111.296 Y112.5 E2.86856
G1 X110.958 Y112.902 E2.88821
G1 X110.564 Y113.249 E2.90786
G1 X110.121 Y113.531 E2.92751
G1 X109.641 Y113.744 E2.94716
G1 X109.134 Y113.88 E2.9668
G1 X108.588 Y113.94 E2.98735
G1 X99.163 Y113.95 E3.34001
G1 X98.465 Y113.941 E3.36613
G1 X97.942 Y113.894 E3.38578
G1 X97.432 Y113.769 E3.40543
G1 X96.947 Y113.567 E3.42509
G1 X96.498 Y113.295 E3.44473
G1 X96.096 Y112.957 E3.46438
G1 X95.75 Y112.562 E3.48403
G1 X95.468 Y112.12 E3.50365
G1 X95.256 Y111.64 E3.52328
G1 X95.119 Y111.133 E3.54293
G1 X95.06 Y110.584 E3.56359
G1 X95.05 Y101.127 E3.91745
G1 X95.059 Y100.462 E3.94234
G1 X95.106 Y99.939 E3.96199
G1 X95.232 Y99.43 E3.98161
G1 X95.434 Y98.945 E4.00126
G1 X95.707 Y98.497 E4.0209
G1 X96.044 Y98.095 E4.04052
G1 X96.439 Y97.749 E4.06017
G1 X96.882 Y97.467 E4.07982
G1 X97.363 Y97.255 E4.09949
G1 X97.87 Y97.119 E4.11913
G1 X98.412 Y97.06 E4.13953
G1 X107.842 Y97.05 E4.49238
G1 X108.54 Y97.06 E4.5185
G1 X109.063 Y97.108 E4.53815
G0 F3600 X109.09 Y96.808
G1 F2400 X109.622 Y96.935 E4.55862
G1 X110.131 Y97.138 E4.57912
G1 X110.604 Y97.412 E4.59958
G1 X111.033 Y97.753 E4.62008
G1 X111.407 Y98.152 E4.64054
G1 X111.719 Y98.602 E4.66103
G1 X111.963 Y99.092 E4.68152
G1 X112.132 Y99.613 E4.70201
G1 X112.24 Y100.405 E4.73192
G1 X112.25 Y109.81 E5.08383
G1 X112.241 Y110.537 E5.11104
G1 X112.194 Y111.083 E5.13154
G1 X112.068 Y111.616 E5.15204
G1 X111.867 Y112.124 E5.17248
G1 X111.593 Y112.598 E5.19296
G1 X111.253 Y113.027 E5.21345
G1 X110.854 Y113.402 E5.23393
G1 X110.405 Y113.716 E5.25444
G1 X109.916 Y113.96 E5.27488
G1 X109.395 Y114.13 E5.29539
G1 X108.596 Y114.24 E5.32557
G1 X99.159 Y114.25 E5.67868
G1 X98.461 Y114.241 E5.7048
G1 X97.915 Y114.194 E5.7253
G1 X97.383 Y114.068 E5.74576
G1 X96.874 Y113.866 E5.76625
G1 X96.4 Y113.592 E5.78674
G1 X95.971 Y113.252 E5.80722
G1 X95.596 Y112.853 E5.82771
G1 X95.283 Y112.404 E5.84819
G1 X95.039 Y111.914 E5.86867
G1 X94.869 Y111.394 E5.88914
G1 X94.76 Y110.592 E5.91943
G1 X94.75 Y101.123 E6.27373
G1 X94.759 Y100.458 E6.29862
G1 X94.807 Y99.913 E6.31909
G1 X94.933 Y99.38 E6.33958
G1 X95.135 Y98.872 E6.36004
G1 X95.41 Y98.398 E6.38054
G1 X95.75 Y97.969 E6.40103
G1 X96.149 Y97.595 E6.42149
G1 X96.598 Y97.282 E6.44197
G1 X97.088 Y97.038 E6.46245
G1 X97.609 Y96.869 E6.48295
G1 X98.404 Y96.76 E6.51297
G1 X107.847 Y96.75 E6.86631
G1 X108.545 Y96.76 E6.89243
G1 X109.09 Y96.808 E6.9129
G0 F3600 X109.116 Y96.508
G1 F2400 X109.67 Y96.636 E6.93417
G1 X110.202 Y96.839 E6.95548
G1 X110.699 Y97.115 E6.97675
G1 X111.153 Y97.458 E6.99804
G1 X111.554 Y97.861 E7.01932
G1 X111.895 Y98.316 E7.04059
G1 X112.169 Y98.815 E7.06189
G1 X112.37 Y99.347 E7.08317
G1 X112.495 Y99.902 E7.10446
G1 X112.548 Y100.716 E7.13498
G1 X112.55 Y109.814 E7.47541
G1 X112.541 Y110.541 E7.50261
G1 X112.494 Y111.108 E7.5239
G1 X112.368 Y111.663 E7.5452
G1 X112.165 Y112.194 E7.56647
G1 X111.89 Y112.692 E7.58775
G1 X111.548 Y113.147 E7.60905
G1 X111.146 Y113.549 E7.63032
G1 X110.691 Y113.891 E7.65162
G1 X110.193 Y114.166 E7.67291
G1 X109.662 Y114.368 E7.69417
G1 X109.107 Y114.494 E7.71546
G1 X108.605 Y114.539 E7.73432
G1 X99.155 Y114.55 E8.08792
G1 X98.457 Y114.541 E8.11404
G1 X97.89 Y114.493 E8.13533
G1 X97.335 Y114.367 E8.15662
G1 X96.804 Y114.164 E8.17789
G1 X96.306 Y113.889 E8.19918
G1 X95.851 Y113.547 E8.22048
G1 X95.449 Y113.145 E8.24175
G1 X95.108 Y112.69 E8.26303
G1 X94.833 Y112.191 E8.28435
G1 X94.631 Y111.66 E8.3056
G1 X94.506 Y111.105 E8.32689
G1 X94.46 Y110.6 E8.34587
G1 X94.45 Y101.119 E8.70062
G1 X94.459 Y100.454 E8.72551
G1 X94.507 Y99.887 E8.7468
G1 X94.634 Y99.333 E8.76807
G1 X94.837 Y98.801 E8.78937
G1 X95.112 Y98.304 E8.81063
G1 X95.455 Y97.849 E8.83195
G1 X95.857 Y97.448 E8.85319
G1 X96.312 Y97.106 E8.87449
G1 X96.811 Y96.832 E8.89579
G1 X97.343 Y96.631 E8.91707
G1 X97.898 Y96.505 E8.93837
G1 X98.716 Y96.452 E8.96904
G1 X107.851 Y96.45 E9.31085
G1 X108.549 Y96.46 E9.33697
G1 X109.116 Y96.508 E9.35826
G1 F1500 E2.85826
;MESH:Wuerfel.stl
G0 F3600 X108.186 Y99.835
G0 X108.186 Y100.814
G0 X107.618 Y109.618
G0 X99.25 Y109.75
;TYPE:WALL-INNER
G1 F1500 E9.35826
G1 F2400 X99.25 Y101.25 E9.67631
G1 X107.75 Y101.25 E9.99436
G1 X107.75 Y109.75 E10.31241
G1 X99.25 Y109.75 E10.63046
G0 F3600 X98.95 Y110.05
G1 F2400 X98.95 Y100.95 E10.97096
G1 X108.05 Y100.95 E11.31146
G1 X108.05 Y110.05 E11.65196
G1 X98.95 Y110.05 E11.99246
G0 F3600 X98.65 Y110.35
;TYPE:WALL-OUTER
G1 F2400 X98.65 Y100.65 E12.35541
G1 X108.35 Y100.65 E12.71837
G1 X108.35 Y110.35 E13.08132
G1 X98.65 Y110.35 E13.44427
G0 F3600 X98.65 Y110.2
G0 X98.87 Y110.13
G0 X99.31 Y109.46
G0 X99.54 Y109.46
;TYPE:SKIN
G1 F2400 X99.54 Y101.54 E13.74062
G1 X107.46 Y101.54 E14.03696
G1 X107.46 Y109.46 E14.33331
G1 X99.54 Y109.46 E14.62966
G0 F3600 X99.99 Y109.324
G1 F2400 X99.674 Y109.008 E14.64638
G0 F3600 X99.674 Y108.584
G1 F2400 X100.414 Y109.324 E14.68554
G0 F3600 X100.839 Y109.324
G1 F2400 X99.674 Y108.159 E14.74719
G0 F3600 X99.674 Y107.735
G1 F2400 X101.263 Y109.324 E14.83127
G0 F3600 X101.687 Y109.324
G1 F2400 X99.674 Y107.311 E14.93779
G0 F3600 X99.674 Y106.886
G1 F2400 X102.111 Y109.324 E15.06678
G0 F3600 X102.536 Y109.324
G1 F2400 X99.674 Y106.462 E15.21822
G0 F3600 X99.674 Y106.038
G1 F2400 X102.96 Y109.324 E15.39211
G0 F3600 X103.384 Y109.324
G1 F2400 X99.674 Y105.614 E15.58843
G0 F3600 X99.674 Y105.189
G1 F2400 X103.808 Y109.324 E15.80721
G0 F3600 X104.233 Y109.324
G1 F2400 X99.674 Y104.765 E16.04846
G0 F3600 X99.674 Y104.341
G1 F2400 X104.657 Y109.324 E16.31214
G0 F3600 X105.081 Y109.324
G1 F2400 X99.674 Y103.917 E16.59826
G0 F3600 X99.674 Y103.492
G1 F2400 X105.505 Y109.324 E16.90684
G0 F3600 X105.93 Y109.324
G1 F2400 X99.674 Y103.068 E17.23789
G0 F3600 X99.674 Y102.644
G1 F2400 X106.354 Y109.324 E17.59137
G0 F3600 X106.778 Y109.324
G1 F2400 X99.674 Y102.22 E17.96729
G0 F3600 X99.674 Y101.795
G1 F2400 X107.203 Y109.324 E18.3657
G0 F3600 X107.324 Y109.021
G1 F2400 X99.977 Y101.674 E18.75448
G0 F3600 X100.402 Y101.674
G1 F2400 X107.324 Y108.597 E19.12079
G0 F3600 X107.324 Y108.173
G1 F2400 X100.826 Y101.674 E19.46467
G0 F3600 X101.25 Y101.674
G1 F2400 X107.324 Y107.748 E19.78609
G0 F3600 X107.324 Y107.324
G1 F2400 X101.674 Y101.674 E20.08506
G0 F3600 X102.099 Y101.674
G1 F2400 X107.324 Y106.9 E20.36158
G0 F3600 X107.324 Y106.476
G1 F2400 X102.523 Y101.674 E20.61566
G0 F3600 X102.947 Y101.674
G1 F2400 X107.324 Y106.051 E20.84727
G0 F3600 X107.324 Y105.627
G1 F2400 X103.371 Y101.674 E21.05645
G0 F3600 X103.796 Y101.674
G1 F2400 X107.324 Y105.203 E21.24317
G0 F3600 X107.324 Y104.779
G1 F2400 X104.22 Y101.674 E21.40745
G0 F3600 X104.644 Y101.674
G1 F2400 X107.324 Y104.354 E21.54927
G0 F3600 X107.324 Y103.93
G1 F2400 X105.068 Y101.674 E21.66865
G0 F3600 X105.493 Y101.674
G1 F2400 X107.324 Y103.506 E21.76556
G0 F3600 X107.324 Y103.082
G1 F2400 X105.917 Y101.674 E21.84004
G0 F3600 X106.341 Y101.674
G1 F2400 X107.324 Y102.657 E21.89206
G0 F3600 X107.324 Y102.233
G1 F2400 X106.766 Y101.674 E21.92161
G0 F3600 X107.19 Y101.674
G1 F2400 X107.324 Y101.809 E21.92873
G0 F3600 X107.89 Y101.809
;MESH:NONMESH
G0 F600 X107.89 Y101.809 Z0.4
G0 F3600 X107.618 Y109.618
G0 X99.25 Y109.75
;TIME_ELAPSED:30.677074
;LAYER:1
M140 S60
M106 S2.6
;TYPE:WALL-INNER
;MESH:Wuerfel.stl
G1 X99.25 Y101.25 E22.03475
G1 X107.75 Y101.25 E22.14076
G1 X107.75 Y109.75 E22.24678
G1 X99.25 Y109.75 E22.3528
G0 F5400 X98.95 Y110.05
G1 F3600 X98.95 Y100.95 E22.4663
G1 X108.05 Y100.95 E22.5798
G1 X108.05 Y110.05 E22.6933
G1 X98.95 Y110.05 E22.8068
G0 F5400 X98.65 Y110.35
;TYPE:WALL-OUTER
G1 F2400 X98.65 Y100.65 E22.92778
G1 X108.35 Y100.65 E23.04877
G1 X108.35 Y110.35 E23.16975
G1 X98.65 Y110.35 E23.29073
G0 F5400 X98.65 Y110.2
G0 X98.87 Y110.13
G0 X99.31 Y109.46
G0 X99.54 Y109.46
;TYPE:SKIN
G1 F2400 X99.54 Y101.54 E23.38952
G1 X107.46 Y101.54 E23.4883
G1 X107.46 Y109.46 E23.58708
G1 X99.54 Y109.46 E23.68586
G0 F5400 X99.31 Y109.46
G0 X99.31 Y101.85
G0 X99.675 Y101.85
G1 F2400 X99.851 Y101.674 E23.68897
G0 F5400 X100.275 Y101.674
G1 F2400 X99.675 Y102.274 E23.69955
G0 F5400 X99.675 Y102.698
G1 F2400 X100.699 Y101.674 E23.71761
G0 F5400 X101.124 Y101.674
G1 F2400 X99.675 Y103.123 E23.74317
G0 F5400 X99.675 Y103.547
G1 F2400 X101.548 Y101.674 E23.77621
G0 F5400 X101.972 Y101.674
G1 F2400 X99.675 Y103.971 E23.81673
G0 F5400 X99.675 Y104.395
G1 F2400 X102.396 Y101.674 E23.86472
G0 F5400 X102.821 Y101.674
G1 F2400 X99.675 Y104.82 E23.92021
G0 F5400 X99.675 Y105.244
G1 F2400 X103.245 Y101.674 E23.98318
G0 F5400 X103.669 Y101.674
G1 F2400 X99.675 Y105.668 E24.05363
G0 F5400 X99.675 Y106.092
G1 F2400 X104.093 Y101.674 E24.13156
G0 F5400 X104.518 Y101.674
G1 F2400 X99.675 Y106.517 E24.21699
G0 F5400 X99.675 Y106.941
G1 F2400 X104.942 Y101.674 E24.30989
G0 F5400 X105.366 Y101.674
G1 F2400 X99.675 Y107.365 E24.41027
G0 F5400 X99.675 Y107.789
G1 F2400 X105.79 Y101.674 E24.51813
G0 F5400 X106.215 Y101.674
G1 F2400 X99.675 Y108.214 E24.63349
G0 F5400 X99.675 Y108.638
G1 F2400 X106.639 Y101.674 E24.75633
G0 F5400 X107.063 Y101.674
G1 F2400 X99.675 Y109.062 E24.88665
G0 F5400 X99.837 Y109.324
G1 F2400 X107.324 Y101.837 E25.01871
G0 F5400 X107.324 Y102.261
G1 F2400 X100.262 Y109.324 E25.14328
G0 F5400 X100.686 Y109.324
G1 F2400 X107.324 Y102.686 E25.26037
G0 F5400 X107.324 Y103.11
G1 F2400 X101.11 Y109.324 E25.36998
G0 F5400 X101.534 Y109.324
G1 F2400 X107.324 Y103.534 E25.47211
G0 F5400 X107.324 Y103.958
G1 F2400 X101.959 Y109.324 E25.56675
G0 F5400 X102.383 Y109.324
G1 F2400 X107.324 Y104.383 E25.6539
G0 F5400 X107.324 Y104.807
G1 F2400 X102.807 Y109.324 E25.73357
G0 F5400 X103.231 Y109.324
G1 F2400 X107.324 Y105.231 E25.80577
G0 F5400 X107.324 Y105.655
G1 F2400 X103.656 Y109.324 E25.87048
G0 F5400 X104.08 Y109.324
G1 F2400 X107.324 Y106.08 E25.9277
G0 F5400 X107.324 Y106.504
G1 F2400 X104.504 Y109.324 E25.97744
G0 F5400 X104.928 Y109.324
G1 F2400 X107.324 Y106.928 E26.0197
G0 F5400 X107.324 Y107.352
G1 F2400 X105.353 Y109.324 E26.05448
G0 F5400 X105.777 Y109.324
G1 F2400 X107.324 Y107.777 E26.08177
G0 F5400 X107.324 Y108.201
G1 F2400 X106.201 Y109.324 E26.10157
G0 F5400 X106.626 Y109.324
G1 F2400 X107.324 Y108.625 E26.1139
G0 F5400 X107.324 Y109.05
G1 F2400 X107.05 Y109.324 E26.11873
G0 F5400 X107.05 Y109.89
;MESH:NONMESH
G0 F600 X107.05 Y109.89 Z0.5
G0 F5400 X99.25 Y109.75
;TIME_ELAPSED:40.022979
;LAYER:2
;TYPE:WALL-INNER
;MESH:Wuerfel.stl
G1 F4800 X99.25 Y101.25 E26.22474
G1 X107.75 Y101.25 E26.33076
G1 X107.75 Y109.75 E26.43678
G1 X99.25 Y109.75 E26.54279
G0 F7200 X98.95 Y110.05
G1 F4800 X98.95 Y100.95 E26.6563
G1 X108.05 Y100.95 E26.7698
G1 X108.05 Y110.05 E26.8833
G1 X98.95 Y110.05 E26.9968
G0 F7200 X98.65 Y110.35
;TYPE:WALL-OUTER
G1 F2400 X98.65 Y100.65 E27.11778
G1 X108.35 Y100.65 E27.23876
G1 X108.35 Y110.35 E27.35975
G1 X98.65 Y110.35 E27.48073
G0 F7200 X98.65 Y110.2
G0 X98.87 Y110.13
G0 X99.31 Y109.46
G0 X99.54 Y109.46
;TYPE:SKIN
G1 F2400 X99.54 Y101.54 E27.57951
G1 X107.46 Y101.54 E27.6783
G1 X107.46 Y109.46 E27.77708
G1 X99.54 Y109.46 E27.87586
G0 F7200 X99.99 Y109.324
G1 F2400 X99.674 Y109.008 E27.88143
G0 F7200 X99.674 Y108.584
G1 F2400 X100.414 Y109.324 E27.89449
G0 F7200 X100.839 Y109.324
G1 F2400 X99.674 Y108.159 E27.91504
G0 F7200 X99.674 Y107.735
G1 F2400 X101.263 Y109.324 E27.94307
G0 F7200 X101.687 Y109.324
G1 F2400 X99.674 Y107.311 E27.97857
G0 F7200 X99.674 Y106.886
G1 F2400 X102.111 Y109.324 E28.02157
G0 F7200 X102.536 Y109.324
G1 F2400 X99.674 Y106.462 E28.07205
G0 F7200 X99.674 Y106.038
G1 F2400 X102.96 Y109.324 E28.13001
G0 F7200 X103.384 Y109.324
G1 F2400 X99.674 Y105.614 E28.19545
G0 F7200 X99.674 Y105.189
G1 F2400 X103.808 Y109.324 E28.26838
G0 F7200 X104.233 Y109.324
G1 F2400 X99.674 Y104.765 E28.34879
G0 F7200 X99.674 Y104.341
G1 F2400 X104.657 Y109.324 E28.43669
G0 F7200 X105.081 Y109.324
G1 F2400 X99.674 Y103.917 E28.53206
G0 F7200 X99.674 Y103.492
G1 F2400 X105.505 Y109.324 E28.63492
G0 F7200 X105.93 Y109.324
G1 F2400 X99.674 Y103.068 E28.74527
G0 F7200 X99.674 Y102.644
G1 F2400 X106.354 Y109.324 E28.8631
G0 F7200 X106.778 Y109.324
G1 F2400 X99.674 Y102.22 E28.98841
G0 F7200 X99.674 Y101.795
G1 F2400 X107.203 Y109.324 E29.12121
G0 F7200 X107.324 Y109.021
G1 F2400 X99.977 Y101.674 E29.2508
G0 F7200 X100.402 Y101.674
G1 F2400 X107.324 Y108.597 E29.37291
G0 F7200 X107.324 Y108.173
G1 F2400 X100.826 Y101.674 E29.48753
G0 F7200 X101.25 Y101.674
G1 F2400 X107.324 Y107.748 E29.59467
G0 F7200 X107.324 Y107.324
G1 F2400 X101.674 Y101.674 E29.69433
G0 F7200 X102.099 Y101.674
G1 F2400 X107.324 Y106.9 E29.7865
G0 F7200 X107.324 Y106.476
G1 F2400 X102.523 Y101.674 E29.87119
G0 F7200 X102.947 Y101.674
G1 F2400 X107.324 Y106.051 E29.9484
G0 F7200 X107.324 Y105.627
G1 F2400 X103.371 Y101.674 E30.01813
G0 F7200 X103.796 Y101.674
G1 F2400 X107.324 Y105.203 E30.08036
G0 F7200 X107.324 Y104.779
G1 F2400 X104.22 Y101.674 E30.13512
G0 F7200 X104.644 Y101.674
G1 F2400 X107.324 Y104.354 E30.1824
G0 F7200 X107.324 Y103.93
G1 F2400 X105.068 Y101.674 E30.22219
G0 F7200 X105.493 Y101.674
G1 F2400 X107.324 Y103.506 E30.2545
G0 F7200 X107.324 Y103.082
G1 F2400 X105.917 Y101.674 E30.27932
G0 F7200 X106.341 Y101.674
G1 F2400 X107.324 Y102.657 E30.29666
G0 F7200 X107.324 Y102.233
G1 F2400 X106.766 Y101.674 E30.30651
G0 F7200 X107.19 Y101.674
G1 F2400 X107.324 Y101.809 E30.30888
G0 F7200 X107.89 Y101.809
;MESH:NONMESH
G0 F600 X107.89 Y101.809 Z0.6
G0 F7200 X107.618 Y109.618
G0 X99.25 Y109.75
;TIME_ELAPSED:49.159523
;LAYER:3
;TYPE:WALL-INNER
;MESH:Wuerfel.stl
G1 F4800 X99.25 Y101.25 E30.4149
G1 X107.75 Y101.25 E30.52092
